!! 00008] TT[TB
!! Eigene Aufnahme
!!!OTL: Jin bei
!!!ARE: Neimeng Erduos
!! Ethnic Group: Menggu
!! IV, 285 (1)
!!!SCT: C0183
!!!YEM: Copyright 1995, estate of Helmut Schaffrath.
**kern
*ICvox
*Ivox
*M2/4
*k[b-]
*F:
{8.a
16dd
8a
16f
16g
=1
8a
8d
8d
8d
=2
8.g
16cc
8a
8f
=3
2d}
=4
{8g
16f
16g
8a
8a
=5
4dd
8gg
16ff
16aa
=6
8a
16a
16g
8f
8f
=7
8g
8g
4a}
=8
{8cc
16dd
16dd
16gg
16aa
8ff
=9
4dd
4aa
=10
16dd
16ff
16dd
16cc
8a
16gg
16ff
=11
2dd}
==
!!!AGN: Yan ge. Jiuxi yanhuei shang chang
!! Zu starkes Netzbrummen, daher noch einmal auf Band 9.
!!    Saenger: Chao Lun Batou; leichte Variante, 2 Strophen
!!    Vereinzelt Verzierungen.
!!!ONB: ESAC (Essen Associative Code) Database: CHINA
!!!AMT: simple duple
!!!AIN: vox
!!!EED: Helmut Schaffrath
!!!EEV: 1.0
*-
